X:92
T:Quand la bergre vient des champs
R:Chanson
O:France
B:Le livre des Chansons (Henri Davenson) n92
Z:<anamnese@laposte.net> -- http://anamnese.fr.st
M:3/4
L:1/4
Q:1/2=120
K:Bb
GGA | B2B | cc2 | !breath!d2c | Bc2 | d2c | Bc2 | d3 !D.C.!  :|| dde |
f2d | ec2 | B2d | c2A | B!breath!Gd | c2A | B^FG | AA2 | G3 ||
W:Quand la bergre vient des champs,
W:  Toujours dansant (2x)
W:Sa quenouillette va filant,
W:  Toujours bergre,
W:  Toujours lgre,
W:  Toujours bon temps.
